communes/4100.svg

<?xml version="1.0" encoding="UTF-8"?>
<!DOCTYPE svg  PUBLIC '-//W3C//DTD SVG 1.1//EN'  'http://www.w3.org/Graphics/SVG/1.1/DTD/svg11.dtd'>
<svg version="1.1" viewBox="0 0 460 515" xmlns="http://www.w3.org/2000/svg">
<defs>
<clipPath>
<path d="m418.2 703.56h3.36v-12.35h-3.36v12.35z"/>
</clipPath>
<clipPath>
<path d="m418.2 603.6h3.36v-12.36h-3.36v12.36z"/>
</clipPath>
<clipPath>
<path d="m418.2 512.64h3.36v-12.36h-3.36v12.36z"/>
</clipPath>
<clipPath id="a">
<path d="m354.48 510.24h63.71v-71.63h-63.71v71.63z"/>
</clipPath>
<clipPath id="b">
<path d="m354.48 510.24h63.71v-71.63h-63.71v71.63z"/>
</clipPath>
<clipPath>
<path d="m418.2 412.68h3.36v-12.36h-3.36v12.36z"/>
</clipPath>
<clipPath>
<path d="m418.2 312.72h3.36v-12.36h-3.36v12.36z"/>
</clipPath>
<clipPath>
<path d="m418.2 212.64h3.36v-12.35h-3.36v12.35z"/>
</clipPath>
</defs>
<g transform="translate(-94.911 -25.21)">
<g transform="matrix(5.5354 0 0 5.5354 -2066.9 -3011.8)">
<g transform="matrix(1.25 0 0 1.25 -50.894 2.0786)" clip-path="url(#b)">
<path d="m354.59 438.7h63.5v39.69 1.63l-0.17 1.62-0.17 1.56-0.28 1.57-0.39 1.57-0.4 1.51-0.5 1.46-0.56 1.45-0.67 1.4-0.67 1.34-0.78 1.34-0.79 1.29-0.89 1.23-0.96 1.23-1.01 1.13-1.05 1.11-1.07 1.07-1.18 0.95-1.17 0.95-1.29 0.9-1.29 0.84-1.29 0.73-1.4 0.72-1.4 0.62-1.45 0.55-1.46 0.51-1.51 0.44-1.52 0.34-1.56 0.28-1.62 0.22-1.57 0.12-1.68 0.06-1.63-0.06-1.62-0.12-1.57-0.22-1.56-0.28-1.52-0.34-1.51-0.44-1.51-0.51-1.4-0.55-1.4-0.62-1.4-0.72-1.34-0.73-1.29-0.84-1.23-0.9-2.36-1.9-1.05-1.07-1.07-1.11-1.01-1.13-0.95-1.23-0.9-1.23-0.79-1.29-0.78-1.34-0.72-1.34-0.62-1.4-0.56-1.45-0.5-1.46-0.45-1.51-0.34-1.57-0.28-1.57-0.22-1.56-0.12-1.62-0.05-1.63v-39.69z" fill-rule="evenodd"/>
</g>
<g transform="matrix(1.25 0 0 1.25 -50.894 2.0786)" clip-path="url(#a)" fill-rule="evenodd">
<path d="m360.7 494.57h51.28v0l-1.06 1.56-1.12 1.46-1.23 1.45-1.34 1.29-1.4 1.28-1.46 1.18-1.57 1.07-1.63 0.95-1.62 0.89-1.73 0.79-1.8 0.67-1.84 0.56-1.91 0.44-1.95 0.29-1.96 0.22-2.02 0.06v0l-2.02-0.06-1.96-0.22-1.9-0.29-1.91-0.44-1.84-0.56-1.79-0.67-1.74-0.79-1.68-0.89-1.62-0.95-1.52-1.07-1.5-1.18-1.41-1.28-1.29-1.29-1.23-1.45-1.17-1.46-1.06-1.56v0z" fill="#094" stroke="#094" stroke-linecap="round" stroke-linejoin="round" stroke-miterlimit="10" stroke-width=".12"/>
<path d="m362.93 493.67-2.79-0.06v0l-0.96-1.73-0.79-1.79-0.72-1.85-0.56-1.9-0.5-1.96-0.17-1-0.17-1.02-0.11-1-0.06-1.07-0.05-1-0.06-1.07v-38.11h60.69v38.11 0 1.07l-0.05 1-0.06 1.07-0.16 1-0.11 1.02-0.23 1-0.45 1.96-0.61 1.9-0.67 1.85-0.84 1.79-0.9 1.73h-2.35v-25.07h2.41v0l-9.52-20.71h-26.72v-5.26l-4.86 0.06-0.06 5.32h-2.58v6.15h-3.02v0 6.26h-2.97v33.31z" fill="#0093dd" stroke="#0093dd" stroke-linecap="round" stroke-linejoin="round" stroke-miterlimit="10" stroke-width=".12"/>
<path d="m368.81 486.34h10.36v-0.67h-10.36v0.67zm-1-1.01h12.49v-1.06h-0.79v-10.02l-2.86 0.06-0.05-1.29v-1.18h-5.15v2.52h-3.03v9.96h-0.61v1.01zm8.61-20.65v-0.67h-4.36v0.73l4.36-0.06zm-5.43-0.84h6.39v-1.12h-6.39v1.12zm0.62-1.62h2.19l0.05-5.77h-2.24v5.77zm4.99 0v-5.77l-2.07 0.06v5.71h2.07zm-13.05 31.39v-32.62h3.02l-0.05-6.22h3.02v-6.27h2.58v-5.2h3.25v5.31h2.96l-0.05 6.16h2.57v6.11h3.13v32.73h-20.43zm15.46-9.34h-9.92v-9.46l3.03 0.05v-2.41h3.75v2.47h3.08l0.06 9.35zm-2.97-0.62h2.35v-7.83h-2.41l0.06 7.83zm-6.27-0.06h2.29l0.06-7.77h-2.35v7.77zm5.6-0.05-0.06-10.3h-2.52v10.3h2.58z" fill="#fff"/>
<path d="m387.23 493.61v-0.78h7.34v0.78h-7.34z" fill="#fff"/>
<path d="m396.81 486.17 9.91 0.06-0.05-0.62h-9.86v0.56zm-0.73-0.95h11.48v-1.01h-0.78v-10.07h-2.58v-2.19l-4.87 0.06v2.19h-2.69v10.01l-0.56 0.06v0.95zm-11.25 8.39-0.06-25.07 24.53-0.05 0.05 25.12h-14.17v-1.73h-0.84v-14.55h-6.88v14.66h-0.84v1.62h-1.79zm12.48-9.34v-9.46h2.7v-2.24h3.52v2.18h2.63v9.52h-8.85zm2.7-0.73-0.06-7.95h-2.07l0.05 7.95h2.08zm0.66 0h2.19v-10.36h-2.19v10.36zm2.91 0h1.97v-7.95h-1.97v7.95z" fill="#fff"/>
<path d="m388.07 492.05h0.62v-13.32h4.31l0.06 13.2h0.67v-13.98h-5.66v14.1z" fill="#fff"/>
<path d="m384.71 467.59 26.49 0.06-8.62-19.09h-23.41v5.37h2.47v6.16h3.13l-0.06 7.5v0z" fill="#f00000" stroke="#f00000" stroke-linecap="round" stroke-linejoin="round" stroke-miterlimit="10" stroke-width=".12"/>
</g>
</g>
</g>
</svg>

<?xml version="1.0" encoding="UTF-8" standalone="no"?>
<!DOCTYPE svg PUBLIC "-//W3C//DTD SVG 1.1//EN" "http://www.w3.org/Graphics/SVG/1.1/DTD/svg11.dtd">
<svg
   xmlns:svg="http://www.w3.org/2000/svg"
   xmlns="http://www.w3.org/2000/svg"
   version="1.1"
   width="460"
   height="515"
   id="svg2">
  <defs
     id="defs4">
    <clipPath
       id="clipPath3580">
      <path
         d="M 418.2,703.56 L 421.56,703.56 L 421.56,691.21 L 418.2,691.21 L 418.2,703.56 z"
         id="path3582" />
    </clipPath>
    <clipPath
       id="clipPath3562">
      <path
         d="M 354.48,701.16 L 418.19,701.16 L 418.19,629.53 L 354.48,629.53 L 354.48,701.16 z"
         id="path3564" />
    </clipPath>
    <clipPath
       id="clipPath3550">
      <path
         d="M 354.48,701.16 L 418.19,701.16 L 418.19,629.53 L 354.48,629.53 L 354.48,701.16 z"
         id="path3552" />
    </clipPath>
    <clipPath
       id="clipPath3474">
      <path
         d="M 418.2,603.6 L 421.56,603.6 L 421.56,591.24 L 418.2,591.24 L 418.2,603.6 z"
         id="path3476" />
    </clipPath>
    <clipPath
       id="clipPath3348">
      <path
         d="M 354.48,601.2 L 418.19,601.2 L 418.19,529.56 L 354.48,529.56 L 354.48,601.2 z"
         id="path3350" />
    </clipPath>
    <clipPath
       id="clipPath3336">
      <path
         d="M 354.48,601.2 L 418.19,601.2 L 418.19,529.56 L 354.48,529.56 L 354.48,601.2 z"
         id="path3338" />
    </clipPath>
    <clipPath
       id="clipPath3260">
      <path
         d="M 418.2,512.64 L 421.56,512.64 L 421.56,500.28 L 418.2,500.28 L 418.2,512.64 z"
         id="path3262" />
    </clipPath>
    <clipPath
       id="clipPath3238">
      <path
         d="M 354.48,510.24 L 418.19,510.24 L 418.19,438.61 L 354.48,438.61 L 354.48,510.24 z"
         id="path3240" />
    </clipPath>
    <clipPath
       id="clipPath3226">
      <path
         d="M 354.48,510.24 L 418.19,510.24 L 418.19,438.61 L 354.48,438.61 L 354.48,510.24 z"
         id="path3228" />
    </clipPath>
    <clipPath
       id="clipPath3146">
      <path
         d="M 418.2,412.68 L 421.56,412.68 L 421.56,400.32 L 418.2,400.32 L 418.2,412.68 z"
         id="path3148" />
    </clipPath>
    <clipPath
       id="clipPath3084">
      <path
         d="M 354.48,410.28 L 418.19,410.28 L 418.19,338.65 L 354.48,338.65 L 354.48,410.28 z"
         id="path3086" />
    </clipPath>
    <clipPath
       id="clipPath3072">
      <path
         d="M 354.48,410.28 L 418.19,410.28 L 418.19,338.65 L 354.48,338.65 L 354.48,410.28 z"
         id="path3074" />
    </clipPath>
    <clipPath
       id="clipPath3000">
      <path
         d="M 418.2,312.72 L 421.56,312.72 L 421.56,300.36 L 418.2,300.36 L 418.2,312.72 z"
         id="path3002" />
    </clipPath>
    <clipPath
       id="clipPath2974">
      <path
         d="M 354.48,310.32 L 418.19,310.32 L 418.19,238.69 L 354.48,238.69 L 354.48,310.32 z"
         id="path2976" />
    </clipPath>
    <clipPath
       id="clipPath2962">
      <path
         d="M 354.48,310.32 L 418.19,310.32 L 418.19,238.69 L 354.48,238.69 L 354.48,310.32 z"
         id="path2964" />
    </clipPath>
    <clipPath
       id="clipPath2888">
      <path
         d="M 418.2,212.64 L 421.56,212.64 L 421.56,200.29 L 418.2,200.29 L 418.2,212.64 z"
         id="path2890" />
    </clipPath>
    <clipPath
       id="clipPath2796">
      <path
         d="M 354.48,210.24 L 418.19,210.24 L 418.19,138.6 L 354.48,138.6 L 354.48,210.24 z"
         id="path2798" />
    </clipPath>
    <clipPath
       id="clipPath2784">
      <path
         d="M 354.48,210.24 L 418.19,210.24 L 418.19,138.6 L 354.48,138.6 L 354.48,210.24 z"
         id="path2786" />
    </clipPath>
    <clipPath
       id="clipPath2710">
      <path
         d="M 422.04,110.76 L 422.04,135.12 L 549.12,135.12 L 549.12,110.76 L 545.88,110.76 L 545.88,125.88 L 425.28,125.88 L 425.28,110.76 L 422.04,110.76 z"
         id="path2712" />
    </clipPath>
    <clipPath
       id="clipPath2688">
      <path
         d="M 351.12,110.76 L 351.12,135.12 L 354.48,135.12 L 354.48,110.76 L 351.12,110.76 z M 418.32,110.76 L 418.32,135.12 L 421.56,135.12 L 421.56,110.76 L 418.32,110.76 z"
         id="path2690" />
    </clipPath>
    <clipPath
       id="clipPath2666">
      <path
         d="M 288.84,110.76 L 288.84,135.12 L 350.64,135.12 L 350.64,110.76 L 347.4,110.76 L 347.4,132.84 L 292.08,132.84 L 292.08,110.76 L 288.84,110.76 z"
         id="path2668" />
    </clipPath>
    <clipPath
       id="clipPath2650">
      <path
         d="M 147.12,110.76 L 147.12,135.12 L 288.36,135.12 L 288.36,110.76 L 285.12,110.76 L 285.12,125.88 L 150.36,125.88 L 150.36,110.76 L 147.12,110.76 z"
         id="path2652" />
    </clipPath>
    <clipPath
       id="clipPath2634">
      <path
         d="M 67.68,110.76 L 67.68,135.12 L 146.64,135.12 L 146.64,110.76 L 143.28,110.76 L 143.28,125.88 L 70.92,125.88 L 70.92,110.76 L 67.68,110.76 z"
         id="path2636" />
    </clipPath>
    <clipPath
       id="clipPath2502">
      <path
         d="M 70.92,803.76 L 574.44,803.76 L 574.44,774.97 L 70.92,774.97 L 70.92,803.76 z"
         id="path2504" />
    </clipPath>
    <clipPath
       id="clipPath2480">
      <path
         d="M 70.92,803.76 L 574.44,803.76 L 574.44,801.97 L 70.92,801.97 L 70.92,803.76 z"
         id="path2482" />
    </clipPath>
    <clipPath
       id="clipPath2470">
      <path
         d="M 70.92,776.76 L 574.44,776.76 L 574.44,774.97 L 70.92,774.97 L 70.92,776.76 z"
         id="path2472" />
    </clipPath>
  </defs>
  <g
     transform="translate(-94.91068,-25.209554)"
     id="layer1">
    <g
       transform="matrix(1.25,0,0,1.25,-50.89375,2.07865)"
       clip-path="url(#clipPath2888)"
       id="g2886" />
    <g
       transform="matrix(1.25,0,0,1.25,-50.89375,2.07865)"
       clip-path="url(#clipPath3000)"
       id="g2998" />
    <g
       transform="matrix(1.25,0,0,1.25,-50.89375,2.07865)"
       clip-path="url(#clipPath3146)"
       id="g3144" />
    <g
       transform="matrix(1.25,0,0,1.25,-50.89375,2.07865)"
       clip-path="url(#clipPath3260)"
       id="g3258" />
    <g
       transform="matrix(1.25,0,0,1.25,-50.89375,2.07865)"
       clip-path="url(#clipPath3474)"
       id="g3472" />
    <g
       transform="matrix(1.25,0,0,1.25,-50.89375,2.07865)"
       clip-path="url(#clipPath3580)"
       id="g3578" />
    <g
       transform="matrix(5.5354331,0,0,5.5354331,-2066.8794,-3011.7923)"
       id="g6299">
      <g
         transform="matrix(1.25,0,0,1.25,-50.89375,2.07865)"
         clip-path="url(#clipPath3226)"
         id="g3224">
        <g
           id="g3230">
          <path
             d="M 354.59,438.7 L 418.09,438.7 L 418.09,478.39 L 418.09,478.39 L 418.09,480.02 L 417.92,481.64 L 417.75,483.2 L 417.47,484.77 L 417.08,486.34 L 416.68,487.85 L 416.18,489.31 L 415.62,490.76 L 414.95,492.16 L 414.28,493.5 L 413.5,494.84 L 412.71,496.13 L 411.82,497.36 L 410.86,498.59 L 409.85,499.72 L 408.8,500.83 L 407.73,501.9 L 406.55,502.85 L 405.38,503.8 L 404.09,504.7 L 402.8,505.54 L 401.51,506.27 L 400.11,506.99 L 398.71,507.61 L 397.26,508.16 L 395.8,508.67 L 394.29,509.11 L 392.77,509.45 L 391.21,509.73 L 389.59,509.95 L 388.02,510.07 L 386.34,510.13 L 386.34,510.13 L 384.71,510.07 L 383.09,509.95 L 381.52,509.73 L 379.96,509.45 L 378.44,509.11 L 376.93,508.67 L 375.42,508.16 L 374.02,507.61 L 372.62,506.99 L 371.22,506.27 L 369.88,505.54 L 368.59,504.7 L 367.36,503.8 L 366.18,502.85 L 365,501.9 L 363.95,500.83 L 362.88,499.72 L 361.87,498.59 L 360.92,497.36 L 360.02,496.13 L 359.23,494.84 L 358.45,493.5 L 357.73,492.16 L 357.11,490.76 L 356.55,489.31 L 356.05,487.85 L 355.6,486.34 L 355.26,484.77 L 354.98,483.2 L 354.76,481.64 L 354.64,480.02 L 354.59,478.39 L 354.59,438.7 z"
             id="path3232"
             style="fill:#000000;fill-opacity:1;fill-rule:evenodd;stroke:none" />
        </g>
      </g>
      <g
         transform="matrix(1.25,0,0,1.25,-50.89375,2.07865)"
         clip-path="url(#clipPath3238)"
         id="g3236">
        <path
           d="M 360.7,494.57 L 411.98,494.57 L 411.98,494.57 L 410.92,496.13 L 409.8,497.59 L 408.57,499.04 L 407.23,500.33 L 405.83,501.61 L 404.37,502.79 L 402.8,503.86 L 401.17,504.81 L 399.55,505.7 L 397.82,506.49 L 396.02,507.16 L 394.18,507.72 L 392.27,508.16 L 390.32,508.45 L 388.36,508.67 L 386.34,508.73 L 386.34,508.73 L 384.32,508.67 L 382.36,508.45 L 380.46,508.16 L 378.55,507.72 L 376.71,507.16 L 374.92,506.49 L 373.18,505.7 L 371.5,504.81 L 369.88,503.86 L 368.36,502.79 L 366.86,501.61 L 365.45,500.33 L 364.16,499.04 L 362.93,497.59 L 361.76,496.13 L 360.7,494.57 L 360.7,494.57 z"
           id="path3242"
           style="fill:#009944;fill-opacity:1;fill-rule:evenodd;stroke:#009944;stroke-width:0.12;stroke-linecap:round;stroke-linejoin:round;stroke-miterlimit:10;stroke-dasharray:none;stroke-opacity:1" />
        <path
           d="M 362.93,493.67 L 360.14,493.61 L 360.14,493.61 L 359.18,491.88 L 358.39,490.09 L 357.67,488.24 L 357.11,486.34 L 356.61,484.38 L 356.44,483.38 L 356.27,482.36 L 356.16,481.36 L 356.1,480.29 L 356.05,479.29 L 355.99,478.22 L 355.99,440.11 L 416.68,440.11 L 416.68,478.22 L 416.68,478.22 L 416.68,479.29 L 416.63,480.29 L 416.57,481.36 L 416.41,482.36 L 416.3,483.38 L 416.07,484.38 L 415.62,486.34 L 415.01,488.24 L 414.34,490.09 L 413.5,491.88 L 412.6,493.61 L 410.25,493.61 L 410.25,468.54 L 412.66,468.54 L 412.66,468.54 L 403.14,447.83 L 376.42,447.83 L 376.42,442.57 L 371.56,442.63 L 371.5,447.95 L 368.92,447.95 L 368.92,454.1 L 365.9,454.1 L 365.9,454.1 L 365.9,460.36 L 362.93,460.36 L 362.93,493.67 z"
           id="path3244"
           style="fill:#0093dd;fill-opacity:1;fill-rule:evenodd;stroke:#0093dd;stroke-width:0.12;stroke-linecap:round;stroke-linejoin:round;stroke-miterlimit:10;stroke-dasharray:none;stroke-opacity:1" />
        <path
           d="M 368.81,486.34 L 379.17,486.34 L 379.17,485.67 L 368.81,485.67 L 368.81,486.34 z M 367.81,485.33 L 380.3,485.33 L 380.3,484.27 L 380.3,484.27 L 379.51,484.27 L 379.51,474.25 L 376.65,474.31 L 376.65,474.31 L 376.6,473.02 L 376.6,471.84 L 371.45,471.84 L 371.45,474.36 L 368.42,474.36 L 368.42,474.36 L 368.42,484.32 L 367.81,484.32 L 367.81,485.33 z M 376.42,464.68 L 376.42,464.01 L 372.06,464.01 L 372.06,464.74 L 376.42,464.68 z M 370.99,463.84 L 370.99,463.84 L 377.38,463.84 L 377.38,462.72 L 370.99,462.72 L 370.99,463.84 z M 371.61,462.22 L 373.8,462.22 L 373.85,456.45 L 371.61,456.45 L 371.61,462.22 z M 376.6,462.22 L 376.6,456.45 L 376.6,456.45 L 374.53,456.51 L 374.53,456.51 L 374.53,462.22 L 376.6,462.22 z M 363.55,493.61 L 363.55,460.99 L 366.57,460.99 L 366.52,454.77 L 369.54,454.77 L 369.54,448.5 L 372.12,448.5 L 372.12,443.3 L 375.37,443.3 L 375.37,448.61 L 378.33,448.61 L 378.33,448.61 L 378.28,454.77 L 378.28,454.77 L 380.85,454.77 L 380.85,460.88 L 383.98,460.88 L 383.98,493.61 L 363.55,493.61 z M 379.01,484.27 L 369.09,484.27 L 369.09,474.81 L 372.12,474.86 L 372.12,472.45 L 375.87,472.45 L 375.87,474.92 L 378.95,474.92 L 379.01,484.27 z M 376.04,483.65 L 378.39,483.65 L 378.39,475.82 L 375.98,475.82 L 376.04,483.65 z M 369.77,483.59 L 372.06,483.59 L 372.12,475.82 L 369.77,475.82 L 369.77,475.82 L 369.77,483.59 L 369.77,483.59 z M 375.37,483.54 L 375.31,473.24 L 372.79,473.24 L 372.79,483.54 L 375.37,483.54 z"
           id="path3246"
           style="fill:#ffffff;fill-opacity:1;fill-rule:evenodd;stroke:none" />
        <path
           d="M 387.23,493.61 L 387.23,492.83 L 394.57,492.83 L 394.57,493.61 L 387.23,493.61 z"
           id="path3248"
           style="fill:#ffffff;fill-opacity:1;fill-rule:evenodd;stroke:none" />
        <path
           d="M 396.81,486.17 L 406.72,486.23 L 406.67,485.61 L 396.81,485.61 L 396.81,486.17 z M 396.08,485.22 L 407.56,485.22 L 407.56,484.21 L 406.78,484.21 L 406.78,474.14 L 404.2,474.14 L 404.2,471.95 L 399.33,472.01 L 399.33,472.01 L 399.33,474.2 L 396.64,474.2 L 396.64,474.2 L 396.64,484.21 L 396.08,484.27 L 396.08,485.22 z M 384.83,493.61 L 384.83,493.61 L 384.77,468.54 L 409.3,468.49 L 409.3,468.49 L 409.35,493.61 L 395.18,493.61 L 395.18,491.88 L 394.34,491.88 L 394.34,477.33 L 387.46,477.33 L 387.46,491.99 L 386.62,491.99 L 386.62,493.61 L 384.83,493.61 z M 397.31,484.27 L 397.31,474.81 L 400.01,474.81 L 400.01,472.57 L 403.53,472.57 L 403.53,474.75 L 406.16,474.75 L 406.16,484.27 L 397.31,484.27 z M 400.01,483.54 L 399.95,475.59 L 397.88,475.59 L 397.88,475.59 L 397.93,483.54 L 400.01,483.54 z M 400.67,483.54 L 400.67,483.54 L 402.86,483.54 L 402.86,473.18 L 400.67,473.18 L 400.67,483.54 z M 403.58,483.54 L 405.55,483.54 L 405.55,475.59 L 403.58,475.59 L 403.58,483.54 z"
           id="path3250"
           style="fill:#ffffff;fill-opacity:1;fill-rule:evenodd;stroke:none" />
        <path
           d="M 388.07,492.05 L 388.69,492.05 L 388.69,478.73 L 393,478.73 L 393.06,491.93 L 393.73,491.93 L 393.73,491.93 L 393.73,477.95 L 388.07,477.95 L 388.07,492.05 z"
           id="path3252"
           style="fill:#ffffff;fill-opacity:1;fill-rule:evenodd;stroke:none" />
        <path
           d="M 384.71,467.59 L 411.2,467.65 L 402.58,448.56 L 379.17,448.56 L 379.17,453.93 L 381.64,453.93 L 381.64,460.09 L 384.77,460.09 L 384.71,467.59 L 384.71,467.59 z"
           id="path3254"
           style="fill:#f00000;fill-opacity:1;fill-rule:evenodd;stroke:#f00000;stroke-width:0.12;stroke-linecap:round;stroke-linejoin:round;stroke-miterlimit:10;stroke-dasharray:none;stroke-opacity:1" />
      </g>
    </g>
  </g>
</svg>
